X: 1
T: Come Up the Back Stairs
C: trad. New England
%D:1964
R: jig
S: Fiddle Hell Online 2021-11-3 handout for Rodney Miller workshop
Z: 2021 John Chambers <jc:trillian.mit.edu>
M: 6/8
L: 1/8
K: G
|:\
"G"D2B B2A | "D"AGF "G"GB^c | "D"B/^c/dD FDF | "G"AGG GFE |
"G"D2B B2A | "D"AGF "G"GB^c | "D"B/^c/dD FDF | "G"G3 [1 GFE :|2 GBd ||
|:\
"G"gfg "A7"bge | "D"ed^c def | "G"gfg "A7"bge | "D"ed^c d2f |
"G"g2g     gab | "C"e2c  efg | "D"d^cd    def | agf [1 "G"g2d :|2 "G"g3 |]
